Yaru++/mimetypes/48/extension.svg

<svg height="48" viewBox="0 0 12.699375 12.699376" width="48" xmlns="http://www.w3.org/2000/svg" xmlns:xlink="http://www.w3.org/1999/xlink"><linearGradient id="a" gradientUnits="userSpaceOnUse" x1="344" x2="344" y1="62" y2="106"><stop offset="0" stop-color="#fff"/><stop offset=".125" stop-color="#fff" stop-opacity=".098039"/><stop offset=".92500001" stop-color="#fff" stop-opacity=".098039"/><stop offset="1" stop-color="#fff" stop-opacity=".498039"/></linearGradient><clipPath id="b"><path d="m335.73108 62c-8.82418 0-9.77365.90635-9.7304 9.74838v12.25162 12.25162c-.0433 8.84203.90622 9.74838 9.7304 9.74838h16.53919c8.82418 0 9.7304-.90625 9.7304-9.74838v-12.25162-12.25162c0-8.84213-.90622-9.74838-9.7304-9.74838z"/></clipPath><linearGradient id="c" gradientTransform="matrix(0 -.02997086 .02997 0 -3.039509 13.625372)" gradientUnits="userSpaceOnUse" x1="459.03448" x2="35.310345" y1="419.23337" y2="207.36522"><stop offset="0" stop-color="#f2f2f2"/><stop offset="1" stop-color="#f9f9f9"/></linearGradient><path d="m4.1621983.39685644c-.5881821 0-1.0513178.013541-1.4323996.077511-.3810844.063969-.6929228.18395553-.9213476.41184079-.228422.22788557-.3489841.53958357-.4123566.92082887-.063373.3812456-.075744.8453923-.07286 1.4349838v3.239953 3.2415032c-.00286.5886859.00955 1.0525969.07286 1.4334329.063372.381246.1839346.692944.4123566.920829.2284248.227885.5402632.347873.9213476.411841.3810845.06397.8442175.07751 1.4323996.07751h4.3757449c.588182 0 1.051074-.01352 1.431367-.07751.3802938-.064.6911798-.18439.9187608-.412357.227583-.227967.347433-.539443.411324-.920313.06389-.380867.07751-.844073.07751-1.4334329v-3.2415033-3.2415031c0-.5893606-.01362-1.0525644-.07751-1.4334337-.06389-.3808691-.183741-.6923444-.411324-.92031216-.227581-.22796755-.538467-.3483608-.9187608-.4123575-.380293-.063997-.843185-.077511-1.431367-.077511z" opacity=".1"/><path d="m4.1623597.39685644c-2.3346161 0-2.5858177.23979336-2.574375 2.57913206v3.241415 3.2414151c-.011456 2.3393384.2397589 2.5791324 2.574375 2.5791324h4.3757785c2.3346168 0 2.5743748-.239767 2.5743748-2.5791324v-3.2414151-3.241415c0-2.33936516-.239758-2.57913206-2.5743748-2.57913206z" fill="none" opacity=".2" stroke="#000" stroke-width=".529141"/><path d="m4.1623597.39685644c-2.3346161 0-2.5858177.23979336-2.574375 2.57913206v3.241415 3.2414151c-.011456 2.3393384.2397589 2.5791324 2.574375 2.5791324h4.3757785c2.3346168 0 2.5743748-.239767 2.5743748-2.5791324v-3.2414151-3.241415c0-2.33936516-.239758-2.57913206-2.5743748-2.57913206z" fill="url(#c)"/><path d="m6.1153491 2.4198035c-.3906566-.0257956-.8302535.2516778-.8145935.6791864-.046202.2544452.1991659.4442982.1884799.6739214-.1445322.0633593-.2544214.0633593-.3561884.0633593h-1.6932501v1.8876405c.1321978.2878578.4021098-.1232263.6153192-.0787679.4073986-.0852737.7740851.2718354.7936024.6664659.0541655.3765047-.0915386.8658672-.51819.9416375-.2301312.0388548-.4778141-.0037304-.6667966-.144376-.2275702-.1373649-.2420554.1640468-.223935.3116903v1.7071162h1.9473355c.2878578-.1321979-.1232236-.4021099-.0787652-.6153192-.0852261-.407298.2717957-.7743047.6664658-.7936527.3765101-.054054.8658646.09156.9416349.5182403.038855.2301312-.00373.477814-.1443734.6667966-.1373649.2275728.1640469.2420554.3116903.223935h1.6474183v-1.9384221c.135362-.2903554.405052.1344335.625148.071159.353368.069508.7114668-.1830324.7647828-.5387234.09017-.3936092-.02164-.9157413-.4525658-1.0538285-.272965-.092965-.544962.025769-.775381.1660575-.212107.029934-.155327-.2267817-.161984-.3591066v-1.6385424h-1.6932498-.1854744c-.2903553-.1353594.1344335-.4050492.0711589-.6251479.0695052-.3533681-.1830324-.7114639-.5387234-.7647801-.088475-.019102-.1791618-.02651-.2695654-.0265391z" fill="#46a926"/><path d="m1.5878048 6.2174035v3.2415032c-.011456 2.3393383.2397774 2.5790443 2.5743935 2.5790443h4.3757449c2.3346158 0 2.5743928-.23968 2.5743928-2.5790443v-3.2415032z" fill="#fff" opacity=".2"/><path d="m6.3500706.39685644v11.64109456h2.1878726c2.3346158 0 2.5743928-.23968 2.5743928-2.5790443v-3.2415032-3.2415031c0-2.33936516-.239777-2.57904396-2.5743928-2.57904396z" fill="#fff" opacity=".1"/><path clip-path="url(#b)" d="m335.73108 62c-8.82418 0-9.77365.90635-9.7304 9.74838v12.25162 12.25162c-.0433 8.84203.90622 9.74838 9.7304 9.74838h16.53919c8.82418 0 9.7304-.90625 9.7304-9.74838v-12.25162-12.25162c0-8.84213-.90622-9.74838-9.7304-9.74838z" fill="none" opacity=".4" stroke="url(#a)" stroke-width="2" transform="matrix(.26457032 0 0 .26457032 -84.66212 -16.006504)"/></svg>

<?xml version="1.0" encoding="UTF-8" standalone="no"?>
<svg
   xmlns:dc="http://purl.org/dc/elements/1.1/"
   xmlns:cc="http://creativecommons.org/ns#"
   xmlns:rdf="http://www.w3.org/1999/02/22-rdf-syntax-ns#"
   xmlns:svg="http://www.w3.org/2000/svg"
   xmlns="http://www.w3.org/2000/svg"
   xmlns:xlink="http://www.w3.org/1999/xlink"
   xmlns:sodipodi="http://sodipodi.sourceforge.net/DTD/sodipodi-0.dtd"
   xmlns:inkscape="http://www.inkscape.org/namespaces/inkscape"
   width="48"
   height="48"
   version="1.1"
   viewBox="0 0 12.699375 12.699376"
   id="svg39"
   sodipodi:docname="extension.svg"
   inkscape:version="0.92.4 (5da689c313, 2019-01-14)">
  <metadata
     id="metadata43">
    <rdf:RDF>
      <cc:Work
         rdf:about="">
        <dc:format>image/svg+xml</dc:format>
        <dc:type
           rdf:resource="http://purl.org/dc/dcmitype/StillImage" />
        <dc:title></dc:title>
      </cc:Work>
    </rdf:RDF>
  </metadata>
  <sodipodi:namedview
     pagecolor="#ffffff"
     bordercolor="#666666"
     borderopacity="1"
     objecttolerance="10"
     gridtolerance="10"
     guidetolerance="10"
     inkscape:pageopacity="0"
     inkscape:pageshadow="2"
     inkscape:window-width="1920"
     inkscape:window-height="1016"
     id="namedview41"
     showgrid="false"
     inkscape:zoom="17.851067"
     inkscape:cx="24.000724"
     inkscape:cy="23.999997"
     inkscape:window-x="0"
     inkscape:window-y="27"
     inkscape:window-maximized="1"
     inkscape:current-layer="svg39" />
  <defs
     id="defs17">
    <linearGradient
       id="linearGradient4226"
       x1="529.65503"
       x2="-35.310001"
       y1="401.58401"
       y2="119.093"
       gradientTransform="matrix(0,-0.11988932,-0.11988589,0,67.016455,292.5483)"
       gradientUnits="userSpaceOnUse">
      <stop
         style="stop-color:#da1636"
         offset="0"
         id="stop2" />
      <stop
         style="stop-color:#f22c42"
         offset="1"
         id="stop4" />
    </linearGradient>
    <linearGradient
       id="linearGradient4358"
       x1="88"
       x2="488"
       y1="88"
       y2="488"
       gradientUnits="userSpaceOnUse">
      <stop
         style="stop-color:#000000;stop-opacity:.58823532"
         offset="0"
         id="stop7" />
      <stop
         style="stop-color:#000000;stop-opacity:0"
         offset=".88"
         id="stop9" />
      <stop
         style="stop-color:#000000"
         offset="1"
         id="stop11" />
    </linearGradient>
    <filter
       id="filter4346"
       width="1.026"
       height="1.022"
       x="-0.0099999998"
       y="-0.0099999998"
       style="color-interpolation-filters:sRGB">
      <feGaussianBlur
         stdDeviation="2.12"
         id="feGaussianBlur14" />
    </filter>
    <clipPath
       clipPathUnits="userSpaceOnUse"
       id="clipPath994">
      <path
         style="color:#000000;display:inline;overflow:visible;visibility:visible;fill:#cdcdcd;fill-opacity:1;fill-rule:nonzero;stroke:none;stroke-width:2;stroke-miterlimit:4;stroke-dasharray:none;stroke-opacity:1;marker:none;enable-background:accumulate"
         d="m 335.73108,62 c -8.82418,0 -9.77365,0.90635 -9.7304,9.74838 V 84 96.25162 c -0.0433,8.84203 0.90622,9.74838 9.7304,9.74838 h 16.53919 c 8.82418,0 9.7304,-0.90625 9.7304,-9.74838 V 84 71.74838 C 362.00067,62.90625 361.09445,62 352.27027,62 Z"
         id="path996"
         inkscape:connector-curvature="0"
         sodipodi:nodetypes="scccssscsss" />
    </clipPath>
    <clipPath
       clipPathUnits="userSpaceOnUse"
       id="clipPath994-7">
      <path
         style="color:#000000;display:inline;overflow:visible;visibility:visible;fill:#cdcdcd;fill-opacity:1;fill-rule:nonzero;stroke:none;stroke-width:2;stroke-miterlimit:4;stroke-dasharray:none;stroke-opacity:1;marker:none;enable-background:accumulate"
         d="m 335.73108,62 c -8.82418,0 -9.77365,0.90635 -9.7304,9.74838 V 84 96.25162 c -0.0433,8.84203 0.90622,9.74838 9.7304,9.74838 h 16.53919 c 8.82418,0 9.7304,-0.90625 9.7304,-9.74838 V 84 71.74838 C 362.00067,62.90625 361.09445,62 352.27027,62 Z"
         id="path996-0"
         inkscape:connector-curvature="0"
         sodipodi:nodetypes="scccssscsss" />
    </clipPath>
    <linearGradient
       inkscape:collect="always"
       xlink:href="#linearGradient927"
       id="linearGradient1004"
       x1="344"
       y1="62"
       x2="344"
       y2="106"
       gradientUnits="userSpaceOnUse" />
    <linearGradient
       inkscape:collect="always"
       id="linearGradient927">
      <stop
         style="stop-color:#ffffff;stop-opacity:1;"
         offset="0"
         id="stop923" />
      <stop
         id="stop933"
         offset="0.125"
         style="stop-color:#ffffff;stop-opacity:0.09803922" />
      <stop
         id="stop931"
         offset="0.92500001"
         style="stop-color:#ffffff;stop-opacity:0.09803922" />
      <stop
         style="stop-color:#ffffff;stop-opacity:0.49803922"
         offset="1"
         id="stop925" />
    </linearGradient>
    <clipPath
       clipPathUnits="userSpaceOnUse"
       id="clipPath994-9">
      <path
         style="color:#000000;display:inline;overflow:visible;visibility:visible;fill:#cdcdcd;fill-opacity:1;fill-rule:nonzero;stroke:none;stroke-width:2;stroke-miterlimit:4;stroke-dasharray:none;stroke-opacity:1;marker:none;enable-background:accumulate"
         d="m 335.73108,62 c -8.82418,0 -9.77365,0.90635 -9.7304,9.74838 V 84 96.25162 c -0.0433,8.84203 0.90622,9.74838 9.7304,9.74838 h 16.53919 c 8.82418,0 9.7304,-0.90625 9.7304,-9.74838 V 84 71.74838 C 362.00067,62.90625 361.09445,62 352.27027,62 Z"
         id="path996-2"
         inkscape:connector-curvature="0"
         sodipodi:nodetypes="scccssscsss" />
    </clipPath>
    <linearGradient
       inkscape:collect="always"
       xlink:href="#linearGradient4338"
       id="linearGradient1024"
       gradientUnits="userSpaceOnUse"
       gradientTransform="matrix(0,-0.02997086,0.02997,0,-3.039509,13.625372)"
       x1="459.03448"
       y1="419.23337"
       x2="35.310345"
       y2="207.36522" />
    <linearGradient
       inkscape:collect="always"
       id="linearGradient4338">
      <stop
         style="stop-color:#f2f2f2;stop-opacity:1"
         offset="0"
         id="stop4340" />
      <stop
         style="stop-color:#f9f9f9;stop-opacity:1"
         offset="1"
         id="stop4342" />
    </linearGradient>
  </defs>
  <path
     style="color:#000000;font-style:normal;font-variant:normal;font-weight:normal;font-stretch:normal;font-size:medium;line-height:normal;font-family:sans-serif;font-variant-ligatures:normal;font-variant-position:normal;font-variant-caps:normal;font-variant-numeric:normal;font-variant-alternates:normal;font-feature-settings:normal;text-indent:0;text-align:start;text-decoration:none;text-decoration-line:none;text-decoration-style:solid;text-decoration-color:#000000;letter-spacing:normal;word-spacing:normal;text-transform:none;writing-mode:lr-tb;direction:ltr;text-orientation:mixed;dominant-baseline:auto;baseline-shift:baseline;text-anchor:start;white-space:normal;shape-padding:0;clip-rule:nonzero;display:inline;overflow:visible;visibility:visible;opacity:0.1;isolation:auto;mix-blend-mode:normal;color-interpolation:sRGB;color-interpolation-filters:linearRGB;solid-color:#000000;solid-opacity:1;vector-effect:none;fill:#000000;fill-opacity:1;fill-rule:nonzero;stroke:none;stroke-width:0.52914065;stroke-linecap:butt;stroke-linejoin:miter;stroke-miterlimit:4;stroke-dasharray:none;stroke-dashoffset:0;stroke-opacity:1;marker:none;color-rendering:auto;image-rendering:auto;shape-rendering:auto;text-rendering:auto;enable-background:accumulate"
     d="m 4.1621983,0.39685644 c -0.5881821,0 -1.0513178,0.013541 -1.4323996,0.077511 C 2.3487143,0.53833644 2.0368759,0.65832297 1.8084511,0.88620823 1.5800291,1.1140938 1.459467,1.4257918 1.3960945,1.8070371 1.3327215,2.1882827 1.3203505,2.6524294 1.3232345,3.2420209 v 3.239953 3.2415032 c -0.00286,0.5886859 0.00955,1.0525969 0.07286,1.4334329 0.063372,0.381246 0.1839346,0.692944 0.4123566,0.920829 0.2284248,0.227885 0.5402632,0.347873 0.9213476,0.411841 0.3810845,0.06397 0.8442175,0.07751 1.4323996,0.07751 h 4.3757449 c 0.588182,0 1.051074,-0.01352 1.431367,-0.07751 0.3802938,-0.064 0.6911798,-0.18439 0.9187608,-0.412357 0.227583,-0.227967 0.347433,-0.539443 0.411324,-0.920313 0.06389,-0.380867 0.07751,-0.844073 0.07751,-1.4334329 V 6.4819738 3.2404707 c 0,-0.5893606 -0.01362,-1.0525644 -0.07751,-1.4334337 C 11.235505,1.4261679 11.115654,1.1146926 10.888071,0.88672484 10.66049,0.65875729 10.349604,0.53836404 9.9693102,0.47436734 c -0.380293,-0.063997 -0.843185,-0.077511 -1.431367,-0.077511 z"
     id="path1020"
     inkscape:connector-curvature="0"
     sodipodi:nodetypes="sccsccccccsscccscsccsss" />
  <path
     style="color:#000000;display:inline;overflow:visible;visibility:visible;opacity:0.2;fill:none;fill-opacity:1;fill-rule:nonzero;stroke:#000000;stroke-width:0.52914065;stroke-miterlimit:4;stroke-dasharray:none;stroke-opacity:1;marker:none;enable-background:accumulate"
     d="m 4.1623597,0.39685644 c -2.3346161,0 -2.5858177,0.23979336 -2.574375,2.57913206 v 3.241415 3.2414151 c -0.011456,2.3393384 0.2397589,2.5791324 2.574375,2.5791324 h 4.3757785 c 2.3346168,0 2.5743748,-0.239767 2.5743748,-2.5791324 V 6.2174035 2.9759885 c 0,-2.33936516 -0.239758,-2.57913206 -2.5743748,-2.57913206 z"
     id="path958"
     inkscape:connector-curvature="0"
     sodipodi:nodetypes="scccssscsss" />
  <path
     style="color:#000000;display:inline;overflow:visible;visibility:visible;fill:url(#linearGradient1024);fill-opacity:1;fill-rule:nonzero;stroke:none;stroke-width:0.26457033;marker:none;enable-background:accumulate"
     d="m 4.1623597,0.39685644 c -2.3346161,0 -2.5858177,0.23979336 -2.574375,2.57913206 v 3.241415 3.2414151 c -0.011456,2.3393384 0.2397589,2.5791324 2.574375,2.5791324 h 4.3757785 c 2.3346168,0 2.5743748,-0.239767 2.5743748,-2.5791324 V 6.2174035 2.9759885 c 0,-2.33936516 -0.239758,-2.57913206 -2.5743748,-2.57913206 z"
     id="path964"
     inkscape:connector-curvature="0"
     sodipodi:nodetypes="scccssscsss" />
  <path
     sodipodi:nodetypes="ccccccccccccccccccccccccccccccc"
     inkscape:connector-curvature="0"
     id="path1010"
     d="M 6.1153491,2.4198035 C 5.7246925,2.3940079 5.2850956,2.6714813 5.3007556,3.0989899 5.2545536,3.3534351 5.4999215,3.5432881 5.4892355,3.7729113 5.3447033,3.8362706 5.2348141,3.8362706 5.1330471,3.8362706 H 3.439797 V 5.7239111 C 3.5719948,6.0117689 3.8419068,5.6006848 4.0551162,5.6451432 4.4625148,5.5598695 4.8292013,5.9169786 4.8487186,6.3116091 4.9028841,6.6881138 4.75718,7.1774763 4.3305286,7.2532466 4.1003974,7.2921014 3.8527145,7.2495162 3.663732,7.1088706 3.4361618,6.9715057 3.4216766,7.2729174 3.439797,7.4205609 V 9.1276771 H 5.3871325 C 5.6749903,8.9954792 5.2639089,8.7255672 5.3083673,8.5123579 5.2231412,8.1050599 5.580163,7.7380532 5.9748331,7.7187052 6.3513432,7.6646512 6.8406977,7.8102652 6.916468,8.2369455 6.955323,8.4670767 6.912738,8.7147595 6.7720946,8.9037421 6.6347297,9.1313149 6.9361415,9.1457975 7.0837849,9.1276771 H 8.7312032 V 7.189255 C 8.8665652,6.8988996 9.1362552,7.3236885 9.3563512,7.260414 9.7097192,7.329922 10.067818,7.0773816 10.121134,6.7216906 10.211304,6.3280814 10.099494,5.8059493 9.6685682,5.6678621 9.3956032,5.5748971 9.1236062,5.6936311 8.8931872,5.8339196 8.6810802,5.8638536 8.7378602,5.6071379 8.7312032,5.474813 V 3.8362706 H 7.0379534 6.852479 C 6.5621237,3.7009112 6.9869125,3.4312214 6.9236379,3.2111227 6.9931431,2.8577546 6.7406055,2.4996588 6.3849145,2.4463426 6.2964395,2.4272406 6.2057527,2.4198326 6.1153491,2.4198035 Z"
     style="color:#000000;display:inline;overflow:visible;visibility:visible;opacity:1;fill:#46a926;fill-opacity:1;fill-rule:nonzero;stroke:none;stroke-width:0.05291407;stroke-linecap:butt;stroke-linejoin:miter;stroke-miterlimit:4;stroke-dasharray:none;stroke-dashoffset:0;stroke-opacity:1;marker:none;enable-background:accumulate" />
  <path
     style="color:#000000;display:inline;overflow:visible;visibility:visible;opacity:0.2;fill:#ffffff;fill-opacity:1;fill-rule:nonzero;stroke:none;stroke-width:0.26457033;marker:none;enable-background:accumulate"
     d="m 1.5878048,6.2174035 v 3.2415032 c -0.011456,2.3393383 0.2397774,2.5790443 2.5743935,2.5790443 h 4.3757449 c 2.3346158,0 2.5743928,-0.23968 2.5743928,-2.5790443 V 6.2174035 Z"
     id="path1006"
     inkscape:connector-curvature="0" />
  <path
     style="color:#000000;display:inline;overflow:visible;visibility:visible;opacity:0.1;fill:#ffffff;fill-opacity:1;fill-rule:nonzero;stroke:none;stroke-width:0.26457033;marker:none;enable-background:accumulate"
     d="M 6.3500706,0.39685644 V 12.037951 h 2.1878726 c 2.3346158,0 2.5743928,-0.23968 2.5743928,-2.5790443 V 6.2174035 2.9759004 c 0,-2.33936516 -0.239777,-2.57904396 -2.5743928,-2.57904396 z"
     id="path1013"
     inkscape:connector-curvature="0" />
  <path
     transform="matrix(0.26457032,0,0,0.26457032,-84.66212,-16.006504)"
     sodipodi:nodetypes="scccssscsss"
     inkscape:connector-curvature="0"
     id="path990"
     d="m 335.73108,62 c -8.82418,0 -9.77365,0.90635 -9.7304,9.74838 V 84 96.25162 c -0.0433,8.84203 0.90622,9.74838 9.7304,9.74838 h 16.53919 c 8.82418,0 9.7304,-0.90625 9.7304,-9.74838 V 84 71.74838 C 362.00067,62.90625 361.09445,62 352.27027,62 Z"
     style="color:#000000;display:inline;overflow:visible;visibility:visible;opacity:0.4;fill:none;fill-opacity:1;fill-rule:nonzero;stroke:url(#linearGradient1004);stroke-width:2;stroke-miterlimit:4;stroke-dasharray:none;stroke-opacity:1;marker:none;enable-background:accumulate"
     clip-path="url(#clipPath994-9)" />
</svg>
